images/16758491.svg

<?xml version="1.0" encoding="UTF-8"?>
<svg xmlns="http://www.w3.org/2000/svg" xmlns:xlink="http://www.w3.org/1999/xlink" width="300pt" height="300pt" viewBox="0 0 300 300" version="1.1">
<defs>
<g>
<symbol overflow="visible" id="glyph0-0">
<path style="stroke:none;" d="M 0.453125 1.59375 L 0.453125 -6.34375 L 4.953125 -6.34375 L 4.953125 1.59375 Z M 0.953125 1.09375 L 4.453125 1.09375 L 4.453125 -5.84375 L 0.953125 -5.84375 Z M 0.953125 1.09375 "/>
</symbol>
<symbol overflow="visible" id="glyph0-1">
<path style="stroke:none;" d="M 0.890625 -6.5625 L 2.078125 -6.5625 L 4.984375 -1.078125 L 4.984375 -6.5625 L 5.84375 -6.5625 L 5.84375 0 L 4.65625 0 L 1.75 -5.484375 L 1.75 0 L 0.890625 0 Z M 0.890625 -6.5625 "/>
</symbol>
<symbol overflow="visible" id="glyph0-2">
<path style="stroke:none;" d="M 3.546875 -5.953125 C 2.898438 -5.953125 2.382812 -5.710938 2 -5.234375 C 1.625 -4.753906 1.4375 -4.101562 1.4375 -3.28125 C 1.4375 -2.445312 1.625 -1.789062 2 -1.3125 C 2.382812 -0.832031 2.898438 -0.59375 3.546875 -0.59375 C 4.191406 -0.59375 4.703125 -0.832031 5.078125 -1.3125 C 5.453125 -1.789062 5.640625 -2.445312 5.640625 -3.28125 C 5.640625 -4.101562 5.453125 -4.753906 5.078125 -5.234375 C 4.703125 -5.710938 4.191406 -5.953125 3.546875 -5.953125 Z M 3.546875 -6.6875 C 4.460938 -6.6875 5.195312 -6.375 5.75 -5.75 C 6.300781 -5.132812 6.578125 -4.3125 6.578125 -3.28125 C 6.578125 -2.238281 6.300781 -1.410156 5.75 -0.796875 C 5.195312 -0.179688 4.460938 0.125 3.546875 0.125 C 2.617188 0.125 1.878906 -0.179688 1.328125 -0.796875 C 0.773438 -1.410156 0.5 -2.238281 0.5 -3.28125 C 0.5 -4.3125 0.773438 -5.132812 1.328125 -5.75 C 1.878906 -6.375 2.617188 -6.6875 3.546875 -6.6875 Z M 3.546875 -6.6875 "/>
</symbol>
</g>
</defs>
<g id="surface42541">
<rect x="0" y="0" width="300" height="300" style="fill:rgb(100%,100%,100%);fill-opacity:1;stroke:none;"/>
<path style="fill:none;stroke-width:1.2;stroke-linecap:butt;stroke-linejoin:miter;stroke:rgb(0%,0%,0%);stroke-opacity:1;stroke-miterlimit:10;" d="M 36.757812 122.515625 L 36.378906 137.144531 "/>
<path style="fill:none;stroke-width:1.2;stroke-linecap:butt;stroke-linejoin:miter;stroke:rgb(0%,0%,0%);stroke-opacity:1;stroke-miterlimit:10;" d="M 36.378906 137.144531 L 48.859375 144.78125 "/>
<path style="fill:none;stroke-width:1.2;stroke-linecap:butt;stroke-linejoin:miter;stroke:rgb(0%,0%,0%);stroke-opacity:1;stroke-miterlimit:10;" d="M 48.859375 144.78125 L 48.480469 159.40625 "/>
<path style="fill:none;stroke-width:1.2;stroke-linecap:butt;stroke-linejoin:miter;stroke:rgb(0%,0%,0%);stroke-opacity:1;stroke-miterlimit:10;" d="M 52.261719 146.332031 L 51.960938 158.035156 "/>
<path style="fill:none;stroke-width:1.2;stroke-linecap:butt;stroke-linejoin:miter;stroke:rgb(0%,0%,0%);stroke-opacity:1;stroke-miterlimit:10;" d="M 61.710938 137.796875 L 48.859375 144.78125 "/>
<path style="fill:none;stroke-width:1.2;stroke-linecap:butt;stroke-linejoin:miter;stroke:rgb(0%,0%,0%);stroke-opacity:1;stroke-miterlimit:10;" d="M 48.480469 159.40625 L 54.71875 163.226562 "/>
<path style="fill:none;stroke-width:1.2;stroke-linecap:butt;stroke-linejoin:miter;stroke:rgb(0%,0%,100%);stroke-opacity:1;stroke-miterlimit:10;" d="M 54.71875 163.226562 L 60.960938 167.046875 "/>
<path style="fill:none;stroke-width:1.2;stroke-linecap:butt;stroke-linejoin:miter;stroke:rgb(0%,0%,0%);stroke-opacity:1;stroke-miterlimit:10;" d="M 48.480469 159.40625 L 35.625 166.394531 "/>
<path style="fill:none;stroke-width:1.2;stroke-linecap:butt;stroke-linejoin:miter;stroke:rgb(0%,0%,100%);stroke-opacity:1;stroke-miterlimit:10;" d="M 60.960938 167.046875 L 67.386719 163.554688 "/>
<path style="fill:none;stroke-width:1.2;stroke-linecap:butt;stroke-linejoin:miter;stroke:rgb(0%,0%,0%);stroke-opacity:1;stroke-miterlimit:10;" d="M 67.386719 163.554688 L 73.8125 160.058594 "/>
<path style="fill:none;stroke-width:1.2;stroke-linecap:butt;stroke-linejoin:miter;stroke:rgb(0%,0%,100%);stroke-opacity:1;stroke-miterlimit:10;" d="M 60.601562 163.324219 L 65.742188 160.527344 "/>
<path style="fill:none;stroke-width:1.2;stroke-linecap:butt;stroke-linejoin:miter;stroke:rgb(0%,0%,0%);stroke-opacity:1;stroke-miterlimit:10;" d="M 65.742188 160.527344 L 70.882812 157.734375 "/>
<path style=" stroke:none;fill-rule:nonzero;fill:rgb(100%,100%,100%);fill-opacity:1;" d="M 57.960938 161.546875 L 64.960938 161.546875 L 64.960938 172.546875 L 57.960938 172.546875 Z M 57.960938 161.546875 "/>
<g style="fill:rgb(0%,0%,100%);fill-opacity:1;">
  <use xlink:href="#glyph0-1" x="57.960938" y="170.209961"/>
</g>
<path style="fill:none;stroke-width:1.2;stroke-linecap:butt;stroke-linejoin:miter;stroke:rgb(0%,0%,0%);stroke-opacity:1;stroke-miterlimit:10;" d="M 73.8125 160.058594 L 86.292969 167.699219 "/>
<path style="fill:none;stroke-width:1.2;stroke-linecap:butt;stroke-linejoin:miter;stroke:rgb(0%,0%,0%);stroke-opacity:1;stroke-miterlimit:10;" d="M 74.191406 145.433594 L 73.8125 160.058594 "/>
<path style="fill:none;stroke-width:1.2;stroke-linecap:butt;stroke-linejoin:miter;stroke:rgb(0%,0%,0%);stroke-opacity:1;stroke-miterlimit:10;" d="M 86.292969 167.699219 L 99.144531 160.710938 "/>
<path style="fill:none;stroke-width:1.2;stroke-linecap:butt;stroke-linejoin:miter;stroke:rgb(0%,0%,0%);stroke-opacity:1;stroke-miterlimit:10;" d="M 99.144531 160.710938 L 99.335938 153.398438 "/>
<path style="fill:none;stroke-width:1.2;stroke-linecap:butt;stroke-linejoin:miter;stroke:rgb(0%,0%,100%);stroke-opacity:1;stroke-miterlimit:10;" d="M 99.335938 153.398438 L 99.523438 146.085938 "/>
<path style="fill:none;stroke-width:1.2;stroke-linecap:butt;stroke-linejoin:miter;stroke:rgb(0%,0%,100%);stroke-opacity:1;stroke-miterlimit:10;" d="M 99.523438 146.085938 L 93.285156 142.265625 "/>
<path style="fill:none;stroke-width:1.2;stroke-linecap:butt;stroke-linejoin:miter;stroke:rgb(0%,0%,0%);stroke-opacity:1;stroke-miterlimit:10;" d="M 93.285156 142.265625 L 87.046875 138.445312 "/>
<path style="fill:none;stroke-width:1.2;stroke-linecap:butt;stroke-linejoin:miter;stroke:rgb(0%,0%,100%);stroke-opacity:1;stroke-miterlimit:10;" d="M 99.523438 146.085938 L 105.949219 142.59375 "/>
<path style="fill:none;stroke-width:1.2;stroke-linecap:butt;stroke-linejoin:miter;stroke:rgb(0%,0%,0%);stroke-opacity:1;stroke-miterlimit:10;" d="M 105.949219 142.59375 L 112.378906 139.097656 "/>
<path style=" stroke:none;fill-rule:nonzero;fill:rgb(100%,100%,100%);fill-opacity:1;" d="M 96.523438 140.585938 L 103.523438 140.585938 L 103.523438 151.585938 L 96.523438 151.585938 Z M 96.523438 140.585938 "/>
<g style="fill:rgb(0%,0%,100%);fill-opacity:1;">
  <use xlink:href="#glyph0-1" x="96.523438" y="149.249023"/>
</g>
<path style="fill:none;stroke-width:1.2;stroke-linecap:butt;stroke-linejoin:miter;stroke:rgb(0%,0%,0%);stroke-opacity:1;stroke-miterlimit:10;" d="M 87.046875 138.445312 L 74.191406 145.433594 "/>
<path style="fill:none;stroke-width:1.2;stroke-linecap:butt;stroke-linejoin:miter;stroke:rgb(0%,0%,0%);stroke-opacity:1;stroke-miterlimit:10;" d="M 74.191406 145.433594 L 61.710938 137.796875 "/>
<path style="fill:none;stroke-width:1.2;stroke-linecap:butt;stroke-linejoin:miter;stroke:rgb(0%,0%,0%);stroke-opacity:1;stroke-miterlimit:10;" d="M 71.144531 147.605469 L 61.164062 141.496094 "/>
<path style="fill:none;stroke-width:1.2;stroke-linecap:butt;stroke-linejoin:miter;stroke:rgb(0%,0%,0%);stroke-opacity:1;stroke-miterlimit:10;" d="M 112.378906 139.097656 L 124.855469 146.738281 "/>
<path style="fill:none;stroke-width:1.2;stroke-linecap:butt;stroke-linejoin:miter;stroke:rgb(0%,0%,0%);stroke-opacity:1;stroke-miterlimit:10;" d="M 124.855469 146.738281 L 137.710938 139.75 "/>
<path style="fill:none;stroke-width:1.2;stroke-linecap:butt;stroke-linejoin:miter;stroke:rgb(0%,0%,0%);stroke-opacity:1;stroke-miterlimit:10;" d="M 137.710938 139.75 L 143.949219 143.570312 "/>
<path style="fill:none;stroke-width:1.2;stroke-linecap:butt;stroke-linejoin:miter;stroke:rgb(0%,0%,100%);stroke-opacity:1;stroke-miterlimit:10;" d="M 143.949219 143.570312 L 150.1875 147.390625 "/>
<path style="fill:none;stroke-width:1.2;stroke-linecap:butt;stroke-linejoin:miter;stroke:rgb(0%,0%,0%);stroke-opacity:1;stroke-miterlimit:10;" d="M 137.160156 143.453125 L 142.152344 146.507812 "/>
<path style="fill:none;stroke-width:1.2;stroke-linecap:butt;stroke-linejoin:miter;stroke:rgb(0%,0%,100%);stroke-opacity:1;stroke-miterlimit:10;" d="M 142.152344 146.507812 L 147.144531 149.5625 "/>
<path style="fill:none;stroke-width:1.2;stroke-linecap:butt;stroke-linejoin:miter;stroke:rgb(0%,0%,0%);stroke-opacity:1;stroke-miterlimit:10;" d="M 137.710938 139.75 L 138.085938 125.125 "/>
<path style="fill:none;stroke-width:1.2;stroke-linecap:butt;stroke-linejoin:miter;stroke:rgb(0%,0%,100%);stroke-opacity:1;stroke-miterlimit:10;" d="M 150.1875 147.390625 L 156.617188 143.898438 "/>
<path style="fill:none;stroke-width:1.2;stroke-linecap:butt;stroke-linejoin:miter;stroke:rgb(100%,0%,0%);stroke-opacity:1;stroke-miterlimit:10;" d="M 156.617188 143.898438 L 163.042969 140.402344 "/>
<path style=" stroke:none;fill-rule:nonzero;fill:rgb(100%,100%,100%);fill-opacity:1;" d="M 147.1875 141.890625 L 154.1875 141.890625 L 154.1875 152.890625 L 147.1875 152.890625 Z M 147.1875 141.890625 "/>
<g style="fill:rgb(0%,0%,100%);fill-opacity:1;">
  <use xlink:href="#glyph0-1" x="147.1875" y="150.553711"/>
</g>
<path style="fill:none;stroke-width:1.2;stroke-linecap:butt;stroke-linejoin:miter;stroke:rgb(100%,0%,0%);stroke-opacity:1;stroke-miterlimit:10;" d="M 163.042969 140.402344 L 169.28125 144.222656 "/>
<path style="fill:none;stroke-width:1.2;stroke-linecap:butt;stroke-linejoin:miter;stroke:rgb(0%,0%,0%);stroke-opacity:1;stroke-miterlimit:10;" d="M 169.28125 144.222656 L 175.519531 148.042969 "/>
<path style=" stroke:none;fill-rule:nonzero;fill:rgb(100%,100%,100%);fill-opacity:1;" d="M 159.042969 134.902344 L 167.042969 134.902344 L 167.042969 145.902344 L 159.042969 145.902344 Z M 159.042969 134.902344 "/>
<g style="fill:rgb(100%,0%,0%);fill-opacity:1;">
  <use xlink:href="#glyph0-2" x="159.042969" y="143.56543"/>
</g>
<path style="fill:none;stroke-width:1.2;stroke-linecap:butt;stroke-linejoin:miter;stroke:rgb(0%,0%,0%);stroke-opacity:1;stroke-miterlimit:10;" d="M 175.519531 148.042969 L 188.375 141.054688 "/>
<path style=" stroke:none;fill-rule:nonzero;fill:rgb(0%,0%,0%);fill-opacity:1;" d="M 200.855469 148.695312 L 189.722656 138.855469 L 187.027344 143.257812 Z M 200.855469 148.695312 "/>
<path style="fill:none;stroke-width:1.2;stroke-linecap:butt;stroke-linejoin:miter;stroke:rgb(0%,0%,0%);stroke-opacity:1;stroke-miterlimit:10;" d="M 200.855469 148.695312 L 200.476562 163.320312 "/>
<path style="fill:none;stroke-width:1.2;stroke-linecap:butt;stroke-linejoin:miter;stroke:rgb(100%,0%,0%);stroke-opacity:1;stroke-miterlimit:10;" d="M 213.707031 141.707031 L 207.28125 145.203125 "/>
<path style="fill:none;stroke-width:1.2;stroke-linecap:butt;stroke-linejoin:miter;stroke:rgb(0%,0%,0%);stroke-opacity:1;stroke-miterlimit:10;" d="M 207.28125 145.203125 L 200.855469 148.695312 "/>
<path style="fill:none;stroke-width:1.2;stroke-linecap:butt;stroke-linejoin:miter;stroke:rgb(0%,0%,0%);stroke-opacity:1;stroke-miterlimit:10;" d="M 200.476562 163.320312 L 212.953125 170.960938 "/>
<path style="fill:none;stroke-width:1.2;stroke-linecap:butt;stroke-linejoin:miter;stroke:rgb(0%,0%,0%);stroke-opacity:1;stroke-miterlimit:10;" d="M 203.523438 161.148438 L 213.503906 167.261719 "/>
<path style="fill:none;stroke-width:1.2;stroke-linecap:butt;stroke-linejoin:miter;stroke:rgb(0%,0%,0%);stroke-opacity:1;stroke-miterlimit:10;" d="M 212.953125 170.960938 L 225.808594 163.972656 "/>
<path style="fill:none;stroke-width:1.2;stroke-linecap:butt;stroke-linejoin:miter;stroke:rgb(0%,0%,0%);stroke-opacity:1;stroke-miterlimit:10;" d="M 225.808594 163.972656 L 226.1875 149.347656 "/>
<path style=" stroke:none;fill-rule:nonzero;fill:rgb(0%,0%,0%);fill-opacity:1;" d="M 225.808594 163.972656 L 236.941406 173.816406 L 239.636719 169.410156 Z M 225.808594 163.972656 "/>
<path style="fill:none;stroke-width:1.2;stroke-linecap:butt;stroke-linejoin:miter;stroke:rgb(0%,0%,0%);stroke-opacity:1;stroke-miterlimit:10;" d="M 226.1875 149.347656 L 219.945312 145.527344 "/>
<path style="fill:none;stroke-width:1.2;stroke-linecap:butt;stroke-linejoin:miter;stroke:rgb(100%,0%,0%);stroke-opacity:1;stroke-miterlimit:10;" d="M 219.945312 145.527344 L 213.707031 141.707031 "/>
<path style=" stroke:none;fill-rule:nonzero;fill:rgb(0%,0%,0%);fill-opacity:1;" d="M 226.1875 149.347656 L 240.273438 144.628906 L 237.808594 140.09375 Z M 226.1875 149.347656 "/>
<path style=" stroke:none;fill-rule:nonzero;fill:rgb(100%,100%,100%);fill-opacity:1;" d="M 209.707031 136.207031 L 217.707031 136.207031 L 217.707031 147.207031 L 209.707031 147.207031 Z M 209.707031 136.207031 "/>
<g style="fill:rgb(100%,0%,0%);fill-opacity:1;">
  <use xlink:href="#glyph0-2" x="209.707031" y="144.870117"/>
</g>
<path style="fill:none;stroke-width:1.2;stroke-linecap:butt;stroke-linejoin:miter;stroke:rgb(0%,0%,0%);stroke-opacity:1;stroke-miterlimit:10;" d="M 239.039062 142.359375 L 239.230469 135.046875 "/>
<path style="fill:none;stroke-width:1.2;stroke-linecap:butt;stroke-linejoin:miter;stroke:rgb(100%,0%,0%);stroke-opacity:1;stroke-miterlimit:10;" d="M 239.230469 135.046875 L 239.417969 127.734375 "/>
<path style="fill:none;stroke-width:1.2;stroke-linecap:butt;stroke-linejoin:miter;stroke:rgb(100%,0%,0%);stroke-opacity:1;stroke-miterlimit:10;" d="M 239.417969 127.734375 L 245.84375 124.242188 "/>
<path style="fill:none;stroke-width:1.2;stroke-linecap:butt;stroke-linejoin:miter;stroke:rgb(0%,0%,0%);stroke-opacity:1;stroke-miterlimit:10;" d="M 245.84375 124.242188 L 252.273438 120.75 "/>
<path style=" stroke:none;fill-rule:nonzero;fill:rgb(100%,100%,100%);fill-opacity:1;" d="M 235.417969 122.234375 L 243.417969 122.234375 L 243.417969 133.234375 L 235.417969 133.234375 Z M 235.417969 122.234375 "/>
<g style="fill:rgb(100%,0%,0%);fill-opacity:1;">
  <use xlink:href="#glyph0-2" x="235.417969" y="130.897461"/>
</g>
<path style="fill:none;stroke-width:1.2;stroke-linecap:butt;stroke-linejoin:miter;stroke:rgb(0%,0%,0%);stroke-opacity:1;stroke-miterlimit:10;" d="M 251.375 122.214844 L 257.613281 126.035156 "/>
<path style="fill:none;stroke-width:1.2;stroke-linecap:butt;stroke-linejoin:miter;stroke:rgb(100%,0%,0%);stroke-opacity:1;stroke-miterlimit:10;" d="M 257.613281 126.035156 L 263.851562 129.855469 "/>
<path style="fill:none;stroke-width:1.2;stroke-linecap:butt;stroke-linejoin:miter;stroke:rgb(0%,0%,0%);stroke-opacity:1;stroke-miterlimit:10;" d="M 253.171875 119.28125 L 259.410156 123.101562 "/>
<path style="fill:none;stroke-width:1.2;stroke-linecap:butt;stroke-linejoin:miter;stroke:rgb(100%,0%,0%);stroke-opacity:1;stroke-miterlimit:10;" d="M 259.410156 123.101562 L 265.648438 126.917969 "/>
<path style="fill:none;stroke-width:1.2;stroke-linecap:butt;stroke-linejoin:miter;stroke:rgb(0%,0%,0%);stroke-opacity:1;stroke-miterlimit:10;" d="M 252.273438 120.75 L 252.648438 106.121094 "/>
<path style=" stroke:none;fill-rule:nonzero;fill:rgb(100%,100%,100%);fill-opacity:1;" d="M 260.75 122.886719 L 268.75 122.886719 L 268.75 133.886719 L 260.75 133.886719 Z M 260.75 122.886719 "/>
<g style="fill:rgb(100%,0%,0%);fill-opacity:1;">
  <use xlink:href="#glyph0-2" x="260.75" y="131.549805"/>
</g>
<path style="fill:none;stroke-width:1.2;stroke-linecap:butt;stroke-linejoin:miter;stroke:rgb(100%,0%,0%);stroke-opacity:1;stroke-miterlimit:10;" d="M 238.289062 171.613281 L 238.097656 178.925781 "/>
<path style="fill:none;stroke-width:1.2;stroke-linecap:butt;stroke-linejoin:miter;stroke:rgb(0%,0%,0%);stroke-opacity:1;stroke-miterlimit:10;" d="M 238.097656 178.925781 L 237.910156 186.238281 "/>
<path style=" stroke:none;fill-rule:nonzero;fill:rgb(100%,100%,100%);fill-opacity:1;" d="M 234.289062 166.113281 L 242.289062 166.113281 L 242.289062 177.113281 L 234.289062 177.113281 Z M 234.289062 166.113281 "/>
<g style="fill:rgb(100%,0%,0%);fill-opacity:1;">
  <use xlink:href="#glyph0-2" x="234.289062" y="174.776367"/>
</g>
<path style="fill:none;stroke-width:1.2;stroke-linecap:butt;stroke-linejoin:miter;stroke:rgb(0%,0%,0%);stroke-opacity:1;stroke-miterlimit:10;" d="M 237.089844 184.726562 L 230.660156 188.21875 "/>
<path style="fill:none;stroke-width:1.2;stroke-linecap:butt;stroke-linejoin:miter;stroke:rgb(100%,0%,0%);stroke-opacity:1;stroke-miterlimit:10;" d="M 230.660156 188.21875 L 224.234375 191.710938 "/>
<path style="fill:none;stroke-width:1.2;stroke-linecap:butt;stroke-linejoin:miter;stroke:rgb(0%,0%,0%);stroke-opacity:1;stroke-miterlimit:10;" d="M 238.734375 187.75 L 232.304688 191.242188 "/>
<path style="fill:none;stroke-width:1.2;stroke-linecap:butt;stroke-linejoin:miter;stroke:rgb(100%,0%,0%);stroke-opacity:1;stroke-miterlimit:10;" d="M 232.304688 191.242188 L 225.878906 194.738281 "/>
<path style="fill:none;stroke-width:1.2;stroke-linecap:butt;stroke-linejoin:miter;stroke:rgb(0%,0%,0%);stroke-opacity:1;stroke-miterlimit:10;" d="M 237.910156 186.238281 L 250.390625 193.878906 "/>
<path style=" stroke:none;fill-rule:nonzero;fill:rgb(100%,100%,100%);fill-opacity:1;" d="M 217.054688 187.726562 L 225.054688 187.726562 L 225.054688 198.726562 L 217.054688 198.726562 Z M 217.054688 187.726562 "/>
<g style="fill:rgb(100%,0%,0%);fill-opacity:1;">
  <use xlink:href="#glyph0-2" x="217.054688" y="196.389648"/>
</g>
<path style="fill:none;stroke-width:1.2;stroke-linecap:butt;stroke-linejoin:miter;stroke:rgb(0%,0%,0%);stroke-opacity:1;stroke-miterlimit:10;" d="M 35.625 166.394531 L 35.25 181.019531 "/>
</g>
</svg>

<svg xmlns="http://www.w3.org/2000/svg" xmlns:xlink="http://www.w3.org/1999/xlink" width="300pt" height="300pt" viewBox="0 0 300 300"><defs><symbol overflow="visible"><path d="M.453 1.594v-7.938h4.5v7.938zm.5-.5h3.5v-6.938h-3.5zm0 0"/></symbol><symbol overflow="visible" id="a"><path d="M.89-6.563H2.08l2.906 5.485v-5.484h.86V0H4.656L1.75-5.484V0H.89zm0 0"/></symbol><symbol overflow="visible" id="b"><path d="M3.547-5.953c-.65 0-1.164.242-1.547.72-.375.48-.563 1.13-.563 1.952 0 .835.188 1.49.563 1.967.383.48.898.72 1.547.72.644 0 1.156-.24 1.53-.72.376-.476.564-1.132.564-1.968 0-.822-.187-1.474-.562-1.954-.375-.477-.887-.72-1.53-.72zm0-.734c.914 0 1.648.312 2.203.937.55.617.828 1.438.828 2.47 0 1.042-.277 1.87-.828 2.483-.555.617-1.29.922-2.203.922-.93 0-1.668-.305-2.22-.922C.774-1.41.5-2.237.5-3.28c0-1.033.273-1.853.828-2.47.55-.625 1.29-.938 2.22-.938zm0 0"/></symbol></defs><g><path fill="#fff" d="M0 0h300v300H0z"/><path d="M36.758 122.516l-.38 14.63M36.38 137.145l12.48 7.636M48.86 144.78l-.38 14.626M52.262 146.332l-.3 11.703M61.71 137.797l-12.85 6.984M48.48 159.406l6.24 3.82" stroke-width="1.2" stroke="#000" stroke-miterlimit="10" fill="none"/><path d="M54.72 163.227l6.24 3.82" stroke-width="1.2" stroke="#00f" stroke-miterlimit="10" fill="none"/><path d="M48.48 159.406l-12.855 6.99" stroke-width="1.2" stroke="#000" stroke-miterlimit="10" fill="none"/><path d="M60.96 167.047l6.427-3.492" stroke-width="1.2" stroke="#00f" stroke-miterlimit="10" fill="none"/><path d="M67.387 163.555l6.425-3.496" stroke-width="1.2" stroke="#000" stroke-miterlimit="10" fill="none"/><path d="M60.602 163.324l5.14-2.797" stroke-width="1.2" stroke="#00f" stroke-miterlimit="10" fill="none"/><path d="M65.742 160.527l5.14-2.793" stroke-width="1.2" stroke="#000" stroke-miterlimit="10" fill="none"/><path d="M57.96 161.547h7v11h-7zm0 0" fill="#fff"/><use xlink:href="#a" x="57.961" y="170.21" fill="#00f"/><path d="M73.813 160.06l12.48 7.64M74.19 145.434l-.377 14.625M86.293 167.7l12.852-6.99M99.145 160.71l.19-7.312" stroke-width="1.2" stroke="#000" stroke-miterlimit="10" fill="none"/><path d="M99.336 153.398l.187-7.312M99.523 146.086l-6.238-3.82" stroke-width="1.2" stroke="#00f" stroke-miterlimit="10" fill="none"/><path d="M93.285 142.266l-6.238-3.82" stroke-width="1.2" stroke="#000" stroke-miterlimit="10" fill="none"/><path d="M99.523 146.086l6.426-3.492" stroke-width="1.2" stroke="#00f" stroke-miterlimit="10" fill="none"/><path d="M105.95 142.594l6.43-3.496" stroke-width="1.2" stroke="#000" stroke-miterlimit="10" fill="none"/><path d="M96.523 140.586h7v11h-7zm0 0" fill="#fff"/><use xlink:href="#a" x="96.523" y="149.249" fill="#00f"/><path d="M87.047 138.445l-12.856 6.99M74.19 145.434l-12.48-7.637M71.145 147.605l-9.98-6.11M112.38 139.098l12.475 7.64M124.855 146.738l12.856-6.988M137.71 139.75l6.24 3.82" stroke-width="1.2" stroke="#000" stroke-miterlimit="10" fill="none"/><path d="M143.95 143.57l6.238 3.82" stroke-width="1.2" stroke="#00f" stroke-miterlimit="10" fill="none"/><path d="M137.16 143.453l4.992 3.055" stroke-width="1.2" stroke="#000" stroke-miterlimit="10" fill="none"/><path d="M142.152 146.508l4.993 3.054" stroke-width="1.2" stroke="#00f" stroke-miterlimit="10" fill="none"/><path d="M137.71 139.75l.376-14.625" stroke-width="1.2" stroke="#000" stroke-miterlimit="10" fill="none"/><path d="M150.188 147.39l6.43-3.492" stroke-width="1.2" stroke="#00f" stroke-miterlimit="10" fill="none"/><path d="M156.617 143.898l6.426-3.496" stroke-width="1.2" stroke="#f00" stroke-miterlimit="10" fill="none"/><path d="M147.188 141.89h7v11h-7zm0 0" fill="#fff"/><use xlink:href="#a" x="147.188" y="150.554" fill="#00f"/><path d="M163.043 140.402l6.238 3.82" stroke-width="1.2" stroke="#f00" stroke-miterlimit="10" fill="none"/><path d="M169.28 144.223l6.24 3.82" stroke-width="1.2" stroke="#000" stroke-miterlimit="10" fill="none"/><path d="M159.043 134.902h8v11h-8zm0 0" fill="#fff"/><use xlink:href="#b" x="159.043" y="143.565" fill="#f00"/><path d="M175.52 148.043l12.855-6.988" stroke-width="1.2" stroke="#000" stroke-miterlimit="10" fill="none"/><path d="M200.855 148.695l-11.132-9.84-2.696 4.403zm0 0"/><path d="M200.855 148.695l-.378 14.625" stroke-width="1.2" stroke="#000" stroke-miterlimit="10" fill="none"/><path d="M213.707 141.707l-6.426 3.496" stroke-width="1.2" stroke="#f00" stroke-miterlimit="10" fill="none"/><path d="M207.28 145.203l-6.425 3.492M200.477 163.32l12.476 7.64M203.523 161.148l9.98 6.114M212.953 170.96l12.856-6.987M225.81 163.973l.377-14.625" stroke-width="1.2" stroke="#000" stroke-miterlimit="10" fill="none"/><path d="M225.81 163.973l11.13 9.843 2.697-4.406zm0 0"/><path d="M226.188 149.348l-6.243-3.82" stroke-width="1.2" stroke="#000" stroke-miterlimit="10" fill="none"/><path d="M219.945 145.527l-6.238-3.82" stroke-width="1.2" stroke="#f00" stroke-miterlimit="10" fill="none"/><path d="M226.188 149.348l14.085-4.72-2.464-4.534zm0 0"/><path d="M209.707 136.207h8v11h-8zm0 0" fill="#fff"/><use xlink:href="#b" x="209.707" y="144.87" fill="#f00"/><path d="M239.04 142.36l.19-7.313" stroke-width="1.2" stroke="#000" stroke-miterlimit="10" fill="none"/><path d="M239.23 135.047l.188-7.313M239.418 127.734l6.426-3.492" stroke-width="1.2" stroke="#f00" stroke-miterlimit="10" fill="none"/><path d="M245.844 124.242l6.43-3.492" stroke-width="1.2" stroke="#000" stroke-miterlimit="10" fill="none"/><path d="M235.418 122.234h8v11h-8zm0 0" fill="#fff"/><use xlink:href="#b" x="235.418" y="130.897" fill="#f00"/><path d="M251.375 122.215l6.238 3.82" stroke-width="1.2" stroke="#000" stroke-miterlimit="10" fill="none"/><path d="M257.613 126.035l6.24 3.82" stroke-width="1.2" stroke="#f00" stroke-miterlimit="10" fill="none"/><path d="M253.172 119.28l6.238 3.822" stroke-width="1.2" stroke="#000" stroke-miterlimit="10" fill="none"/><path d="M259.41 123.102l6.238 3.816" stroke-width="1.2" stroke="#f00" stroke-miterlimit="10" fill="none"/><path d="M252.273 120.75l.375-14.63" stroke-width="1.2" stroke="#000" stroke-miterlimit="10" fill="none"/><path d="M260.75 122.887h8v11h-8zm0 0" fill="#fff"/><use xlink:href="#b" x="260.75" y="131.55" fill="#f00"/><path d="M238.29 171.613l-.192 7.313" stroke-width="1.2" stroke="#f00" stroke-miterlimit="10" fill="none"/><path d="M238.098 178.926l-.188 7.312" stroke-width="1.2" stroke="#000" stroke-miterlimit="10" fill="none"/><path d="M234.29 166.113h8v11h-8zm0 0" fill="#fff"/><use xlink:href="#b" x="234.289" y="174.776" fill="#f00"/><path d="M237.09 184.727l-6.43 3.492" stroke-width="1.2" stroke="#000" stroke-miterlimit="10" fill="none"/><path d="M230.66 188.22l-6.426 3.49" stroke-width="1.2" stroke="#f00" stroke-miterlimit="10" fill="none"/><path d="M238.734 187.75l-6.43 3.492" stroke-width="1.2" stroke="#000" stroke-miterlimit="10" fill="none"/><path d="M232.305 191.242l-6.426 3.496" stroke-width="1.2" stroke="#f00" stroke-miterlimit="10" fill="none"/><path d="M237.91 186.238l12.48 7.64" stroke-width="1.2" stroke="#000" stroke-miterlimit="10" fill="none"/><path d="M217.055 187.727h8v11h-8zm0 0" fill="#fff"/><use xlink:href="#b" x="217.055" y="196.39" fill="#f00"/><path d="M35.625 166.395l-.375 14.625" stroke-width="1.2" stroke="#000" stroke-miterlimit="10" fill="none"/></g></svg>
